app/dist/common/images/electric-connector.svg

<svg height="18" viewBox="0 0 18 18" width="18" xmlns="http://www.w3.org/2000/svg"><path d="m0 0h18v18h-18z" fill="#f0f3fa"/><path d="m4 6h10v1.36h-6.3a1.64 1.64 0 1 0 0 3.28h2.3v1.36h-6z" fill="#1f3f99"/><path d="m10.47 10.64h3.53v1.36h-3.53zm-3.53-1.64a1 1 0 0 1 1-1h6.06v2h-6.06a1 1 0 0 1 -1-1z" fill="#f58227"/></svg>

<!-- by TradingView --><svg width="18" height="18" viewBox="0 0 18 18" xmlns="http://www.w3.org/2000/svg"><path fill="#F0F3FA" d="M0 0h18v18H0z"/><path d="M4 6h10v1.36H7.7a1.64 1.64 0 1 0 0 3.28H10V12H4V6Z" fill="#1F3F99"/><path fill="#F58227" d="M10.47 10.64H14V12h-3.53zM6.94 9a1 1 0 0 1 1-1H14v2H7.94a1 1 0 0 1-1-1Z"/></svg>
